X:7127
T:The New Sylph
O:england
C:William Docker's MS
Q:1/4=80
M:2/4
L:1/16
K:G
|:BcBA G2D2|GABc defg|BcBA GABG|c2A2 A4|
BcBA G2D2|GABc defg|edcB ABcd|B2G2 G4:|
|:g2g2 gabg|a2f2 d4|g2g2 gabg|a2f2 d4|
gfga bagf|edef gfed|cBAG FGAe|d2B2 G4:|


